src/assets/duotone/Mobile.svg

<svg width="24" height="24" viewBox="0 0 24 24"  xmlns="http://www.w3.org/2000/svg">
<path opacity="0.4" d="M16.24 2H7.76C5 2 4 3 4 5.81V18.19C4 21 5 22 7.76 22H16.23C19 22 20 21 20 18.19V5.81C20 3 19 2 16.24 2Z" />
<path d="M14 6.25H10C9.59 6.25 9.25 5.91 9.25 5.5C9.25 5.09 9.59 4.75 10 4.75H14C14.41 4.75 14.75 5.09 14.75 5.5C14.75 5.91 14.41 6.25 14 6.25Z" />
<path d="M12 19.2998C12.9665 19.2998 13.75 18.5163 13.75 17.5498C13.75 16.5833 12.9665 15.7998 12 15.7998C11.0335 15.7998 10.25 16.5833 10.25 17.5498C10.25 18.5163 11.0335 19.2998 12 19.2998Z" />
</svg>

<?xml version="1.0" encoding="UTF-8"?>
<svg width="24" height="24" viewBox="0 0 24 24" xmlns="http://www.w3.org/2000/svg">
 <path d="M16.24 2H7.76C5 2 4 3 4 5.81V18.19C4 21 5 22 7.76 22H16.23C19 22 20 21 20 18.19V5.81C20 3 19 2 16.24 2Z" opacity=".4"/>
 <path d="m14 6.25h-4c-0.41 0-0.75-0.34-0.75-0.75s0.34-0.75 0.75-0.75h4c0.41 0 0.75 0.34 0.75 0.75s-0.34 0.75-0.75 0.75z"/>
 <path d="m12 19.3c0.9665 0 1.75-0.7835 1.75-1.75s-0.7835-1.75-1.75-1.75-1.75 0.7835-1.75 1.75 0.7835 1.75 1.75 1.75z"/>
</svg>
